X:528
T:Reel 528
M:4/4
K:Dmix
L:1/8
dB|AGFE FGAB| (3cBA GF EFGB|AFGE FGAB|cABG A2:|de|fefd ecAc|dedc Adde|fefg ecAc|dcAF G2FG|AE (3EFG ABce|dcde dcAe|fedc dcAG| (3ABc GE FDD|
